X: 53
T:Snow Shoer's Reel
R:Reel
M:2/4
L:1/16
K:F
c2|:f2cf a2gf|eceg bgeg|f2cf a2gf|edcB AFF2|
f2cf a2gf|eceg bgeg|f2cf a2gf|edcB AFF2:|
|:AFcF AFGA|Bcdc BAGB|AFcF AFGA|BdcB AFF2|
AFcF AFGA|Bcdc BAGB|AFcF AFGA|BdcB AFF2:|
